!!!COM: Hindemith, Paul
!!!OTL: Sonata for Violincello and Piano Op. 11, No. 3
!!!OMV: I: Mäßig schnelle Viertel, Mit Kraft (Moderatly Fast Quarters, with Power)
!!!example: 617
!!!work: Hin-7
**kern	**kern	**dynam	**kern	**dynam
*part2	*part2	*part2	*part1	*part1
*staff3	*staff2	*	*staff1	*
*I"Piano	*	*	*I"Violoncello	*
*I'Pno.	*	*	*I'Vc.	*
*clefF4	*clefG2	*	*clefF4	*
*k[]	*k[]	*	*k[]	*
*C:	*C:	*	*C:	*
*M4/4	*M4/4	*	*M4/4	*
*MM121	*MM121	*	*MM121	*
=226	=	=	=	=
4FF#X^ 4C 4E	4f^ 4a	.	(2.D	.
*clefG2	*	*	*	*
(8fnL	(8aaL	.	.	.
8bJ	8gg#XJ	.	.	.
8ccL	8dd#XL	.	.	.
8f	8aa	.	.	.
8b	8gg#	.	4D-X)	.
8ccJ	8dd#J	.	.	.
=227	=227	=227	=227	=227
8fL	8aaL	.	(2FF	.
8b	8gg#X	.	.	.
8cc	8dd#X	.	.	.
8fJ	8aaJ	.	.	.
8bL	8gg#L	.	2EE#X)	.
8cc	8dd#	.	.	.
8f	8aa	.	.	.
8bJ	8gg#J	.	.	.
=228	=228	=228	=228	=228
8ccL)	8dd#XL)	.	4r	.
(8e	(8bb-X	.	.	.
8a#X	8aa	.	(2FF	.
8bnJ	8eeJ	.	.	.
8eL	8bb-L	.	.	.
8a#	8aa	.	.	.
8b	8ee	.	4GGn)	.
8eJ	8bb-J	.	.	.
=229	=229	=229	=229	=229
8a#XL	8aaL	.	(4BB-X	.
8b)	8ee)	.	.	.
(8f	(8aa	.	4AA	.
8bJ	8gg#XJ	.	.	.
8ccL	8dd#XL	.	4GG-X	.
8f	8aa	.	.	.
8b	8gg#	.	4D-X)	.
8ccJ	8dd#J	.	.	.
=230	=230	=230	=230	=230
!!linebreak:original
8fL	8aaL	.	[1Cn	.
8b	8gg#X	.	.	.
8cc)	8dd#X)	.	.	.
(8d-XJ	(8bbJ	.	.	.
8gL	8bb-XL	.	.	.
8a-X	8ffn	.	.	.
8d-	8ccc-X	.	.	.
8gJ	8bb-J	.	.	.
=231	=231	=231	=231	=231
8a-XL	8ffL	.	4C]	.
8d-X	8ccc-X	.	.	.
8g	8bb-X	.	(4GG	.
8a-J	8ffJ	.	.	.
8d-L	8ccc-L	.	4AA#X	.
8g	8bb-	.	.	.
8a-	8ff	.	4BB)	.
8d-J	8ccc-J	.	.	.
=232	=232	=232	=232	=232
8gL	8bb-XL	.	(2BB	.
8a-X)	8ff)	.	.	.
(8f	(8aa	.	.	.
8bnJ	8gg#XJ	.	.	.
8ccL	8dd#XL	.	[2AA#X	.
8f	8aa	.	.	.
8bn	8gg#	.	.	.
8ccJ)	8dd#J)	.	.	.
=233	=233	=233	=233	=233
!!linebreak:original
(8e-XL	(8ggnL	mf	4AA#])	.
8a	8ff#X	.	.	.
8b-X	8cc#X	.	(4c#X	mf
!	!LO:TX:t=dim.	!	!	!
8e-J	8ggJ	.	.	.
!	!	!	!LO:TX:t=dim.	!
8aL	8ff#L	.	4d#X	.
8b-)	8cc#)	.	.	.
(8d-X	(8ffn	.	4e)	.
8gJ	8eeJ	.	.	.
=234	=234	=234	=234	=234
8a-XL	8bL	.	(2e	.
8d-X	8ff	.	.	.
8g	8ee	.	.	.
8a-J)	8bJ)	.	.	.
(8c-XL	(8ee-XL	.	[2d#X	.
8f	8dd	.	.	.
8g-X	8a	.	.	.
8c-J	8ee-J	.	.	.
=235	=235	=235	=235	=235
8fL	8ddL	.	4d#])	.
8g-X)	8a)	.	.	.
(8An	(8dd-X	.	(4B-X	.
8d#XJ	8ccJ	.	.	.
8enL	8gL	.	4c	.
8A	8dd-	.	.	.
8d#	8cc	.	4d-X)	.
8enJ)	8gJ)	.	.	.
==	==	==	==	==
*-	*-	*-	*-	*-
!!!CDT: 1895/11/16-1963/12/28
!!!CBL: Hanau, Germany
!!!CDL: Frankfurt, Germany
!!!CNT: German
!!!AGN: Instrumental; Chamber
!!!MCN:
!!!MDT: 1919/10/27
!!!MGN:
!!!MLC: Frankfurt, Germany
!!!MPD: 1919
!!!MPN: Frankfurt, Maurits; Lübbecke-Job, Emma
!!!ODT: 1919 (rev. 1921)
!!!PDT: 1922
!!!excerpt-start-measure: 226
!!!excerpt-end-measure: 235
!!!excerpt-start-time: 5:49
!!!excerpt-end-time: 6:02
!!!EEV: 2020/01/17
!!!system-decoration: s1{(s2,s3)}
!!!ONB: Converted from MusicXML on 2020/01/17
